X: 171
T: O salutaris hostia
N: Derived from Rue2016-O_salutaris_hostia.krn
C: Pierre de la Rue
%%abc-version 2.0
%%abcx-abcm2ps-target-version 5.9.1 (29 Sep 2008)
%%abc-creator hum2abc beta
%%abcx-conversion-date 2019/02/17 08:01:17
%%abc-edited-by Jesse Rodin
%%abc-edited-by Chris Gage 01-04-2013
%%abcx-initial-encoding-date 2013/07/22/
%%humdrum-veritas 4235348111
%%humdrum-veritas-data 1373220062
%%linebreak <none>
%%barnumbers 0
L: 1/4
M: 2/1
Q: 1/2=120
%%staves [1 2 3 4]
V: 1 clef=treble
V: 2 clef=treble-8
V: 3 clef=treble-8
V: 4 clef=bass
K: F
[V:1] A8 | 
[V:2] f8 | 
[V:3] c8- | 
[V:4] F,8 | 
[V:1] A4A4 | 
[V:2] f4f4 | 
[V:3] c8 | 
[V:4] F,4F,4 | 
[V:1] G4A4 | 
[V:2] e4f4 | 
[V:3] c4c4 | 
[V:4] C,4F,4 | 
[V:1] G4F4 | 
[V:2] e4d4 | 
[V:3] c4A4 | 
[V:4] C,4D,4 | 
[V:1] E4z2A2- | 
[V:2] c3de2f2- | 
[V:3] c8 | 
[V:4] A,8 | 
[V:1] A2GFA3B | 
[V:2] f2edf4 | 
[V:3] d8 | 
[V:4] D,8 | 
[V:1] !fermata!c8 | 
[V:2] !fermata!e8 | 
[V:3] !fermata!c8 | 
[V:4] !fermata![A,,8A,8] | 
[V:1] A8 | 
[V:2] f8 | 
[V:3] c8 | 
[V:4] F,8 | 
[V:1] B8 | 
[V:2] f8 | 
[V:3] d8 | 
[V:4] B,8 | 
[V:1] A8 | 
[V:2] f8 | 
[V:3] c8 | 
[V:4] F,8 | 
[V:1] G8 | 
[V:2] d8 | 
[V:3] B8 | 
[V:4] G,8 | 
[V:1] G8 | 
[V:2] e8 | 
[V:3] c8 | 
[V:4] C,8 | 
[V:1] F8 | 
[V:2] d8 | 
[V:3] A8 | 
[V:4] D,8 | 
[V:1] F6ED | 
[V:2] d8 | 
[V:3] B8 | 
[V:4] B,,8 | 
[V:1] !fermata!E8 | 
[V:2] !fermata!c8 | 
[V:3] !fermata!G8 | 
[V:4] !fermata!C,8 | 
[V:1] A8 | 
[V:2] f8 | 
[V:3] z8 | 
[V:4] D,8 | 
[V:1] A4A4 | 
[V:2] d4f4- | 
[V:3] A8 | 
[V:4] D,4D,4 | 
[V:1] A8 | 
[V:2] f2edc2d2 | 
[V:3] A6GF | 
[V:4] F,6E,D, | 
[V:1] c6BA | 
[V:2] e8 | 
[V:3] G8 | 
[V:4] C,8 | 
[V:1] G2A2B4- | 
[V:2] e4f4- | 
[V:3] c4d4- | 
[V:4] C,4B,,4- | 
[V:1] B4A4- | 
[V:2] f4f4 | 
[V:3] d4c4 | 
[V:4] B,,4F,4 | 
[V:1] A2G2G4 | 
[V:2] d4e4 | 
[V:3] B8 | 
[V:4] G,4E,4 | 
[V:1] A6F2 | 
[V:2] c6d2 | 
[V:3] A8- | 
[V:4] F,3G,A,4 | 
[V:1] !fermata!F8 | 
[V:2] !fermata!d8 | 
[V:3] !fermata!A8 | 
[V:4] !fermata!D,8 | 
[V:1] A8 | 
[V:2] f8 | 
[V:3] A8 | 
[V:4] D,8 | 
[V:1] A8 | 
[V:2] e8 | 
[V:3] c4c4 | 
[V:4] A,8 | 
[V:1] F4D4 | 
[V:2] d4f4- | 
[V:3] d8- | 
[V:4] D,6B,,2 | 
[V:1] B6G2 | 
[V:2] f2edf2g2 | 
[V:3] d8 | 
[V:4] B,,4B,,4 | 
[V:1] G4c4- | 
[V:2] e8 | 
[V:3] z2c4B2 | 
[V:4] C,8 | 
[V:1] c2B2A2G2 | 
[V:2] f6e2 | 
[V:3] A2G2F4 | 
[V:4] z4F,4- | 
[V:1] F4B4- | 
[V:2] d2c2B2c2 | 
[V:3] f6e2 | 
[V:4] F,2E,2D,2C,2 | 
[V:1] B2A2G2F2 | 
[V:2] d8 | 
[V:3] d2c2B2A2 | 
[V:4] B,,8 | 
[V:1] E3DE4 | 
[V:2] c8- | 
[V:3] G3FG4 | 
[V:4] C,8 | 
[V:1] F8 |]  
[V:2] c8 |]  
[V:3] F8 |]  
[V:4] F,8 |]  



